data/icons/scalable/actions/general-symbolic.svg

<?xml version="1.0" encoding="UTF-8"?>
<svg height="16px" viewBox="0 0 16 16" width="16px" xmlns="http://www.w3.org/2000/svg">
    <path d="m 1.386719 1 c -0.214844 0 -0.386719 0.167969 -0.386719 0.378906 v 3.242188 c 0 0.210937 0.171875 0.378906 0.386719 0.378906 h 3.230469 c 0.210937 0 0.382812 -0.167969 0.382812 -0.378906 v -3.242188 c 0 -0.210937 -0.171875 -0.378906 -0.382812 -0.378906 z m 5.613281 1 v 2 h 8 v -2 z m -5.613281 4.015625 c -0.214844 0 -0.386719 0.167969 -0.386719 0.378906 v 3.21875 c 0 0.210938 0.171875 0.378907 0.386719 0.378907 h 3.230469 c 0.210937 0 0.382812 -0.167969 0.382812 -0.378907 v -3.21875 c 0 -0.210937 -0.171875 -0.378906 -0.382812 -0.378906 z m 5.613281 0.984375 v 2 h 8 v -2 z m -5.613281 4 c -0.214844 0 -0.386719 0.167969 -0.386719 0.378906 v 3.222656 c 0 0.207032 0.171875 0.378907 0.386719 0.378907 h 3.230469 c 0.210937 0 0.382812 -0.171875 0.382812 -0.378907 v -3.222656 c 0 -0.210937 -0.171875 -0.378906 -0.382812 -0.378906 z m 5.613281 0.984375 v 2 h 8 v -2 z m 0 0" fill="#222222"/>
</svg>

<svg xmlns="http://www.w3.org/2000/svg" width="16" height="16" viewBox="0 0 16 16"><path fill="#222" d="M1.387 1A.38.38 0 0 0 1 1.379V4.62c0 .211.172.379.387.379h3.23A.38.38 0 0 0 5 4.621V1.38A.38.38 0 0 0 4.617 1zM7 2v2h8V2zM1.387 6.016A.38.38 0 0 0 1 6.395v3.218c0 .211.172.38.387.38h3.23A.38.38 0 0 0 5 9.612V6.395a.38.38 0 0 0-.383-.38zM7 7v2h8V7zm-5.613 4a.38.38 0 0 0-.387.379v3.223c0 .207.172.378.387.378h3.23c.211 0 .383-.171.383-.378v-3.223A.38.38 0 0 0 4.617 11zM7 11.984v2h8v-2zm0 0"/></svg>
